X: 5
T: The Cock And The Hen
R: slip jig
M: 9/8
L: 1/8
K: Bmin
|: BcB BAB g2 A | BcB BAB dBA | BcB BAB g2 e | fed edB dBA :|afd def g2 e | afd def gfe | afd def g2 e | fed edB dBA |afd def g2 e | afd def gfe | a2 a agf g2 e | fed edB dBA |]


Tune 93	Setting 26030

